svg/fluentui-system-icons/ic_fluent_person_running_20_regular.svg

<svg width="20" height="20" viewBox="0 0 20 20" fill="none" xmlns="http://www.w3.org/2000/svg">
<path d="M13.5 6C12.6716 6 12 5.32843 12 4.5C12 3.67157 12.6716 3 13.5 3C14.3284 3 15 3.67157 15 4.5C15 5.32843 14.3284 6 13.5 6ZM14.8265 6.61943C15.5314 6.17734 16 5.3934 16 4.5C16 3.11929 14.8807 2 13.5 2C12.1193 2 11 3.11929 11 4.5H8C6.61929 4.5 5.5 5.61929 5.5 7V8.75C5.5 9.4378 5.89679 10.0329 6.47395 10.3189L5.79289 11H2.75C1.7835 11 1 11.7835 1 12.75C1 13.7165 1.7835 14.5 2.75 14.5H5.68605C6.32258 14.5 6.94194 14.2935 7.45116 13.9116L8.45308 13.1602L10 14.7071V16.25C10 17.2165 10.7835 18 11.75 18C12.7165 18 13.5 17.2165 13.5 16.25V13C13.5 12.8674 13.4473 12.7402 13.3536 12.6464L11.7071 11L12.5 10.2071L12.5968 10.3039C13.0425 10.7496 13.647 11 14.2774 11H17.25C18.2165 11 19 10.2165 19 9.25C19 8.2835 18.2165 7.5 17.25 7.5H15.7071L14.8265 6.61943ZM13.7776 6.98476L15.1464 8.35355C15.2402 8.44732 15.3674 8.5 15.5 8.5H17.25C17.6642 8.5 18 8.83579 18 9.25C18 9.66421 17.6642 10 17.25 10H14.2774C13.9122 10 13.5621 9.85495 13.3039 9.59677L12.8536 9.14645C12.6583 8.95118 12.3417 8.95118 12.1464 9.14645L10.6464 10.6464C10.4512 10.8417 10.4512 11.1583 10.6464 11.3536L12.5 13.2071V16.25C12.5 16.6642 12.1642 17 11.75 17C11.3358 17 11 16.6642 11 16.25V14.5C11 14.3674 10.9473 14.2402 10.8536 14.1464L8.85355 12.1464C8.67761 11.9705 8.39906 11.9507 8.2 12.1L6.85116 13.1116C6.51503 13.3637 6.10621 13.5 5.68605 13.5H2.75C2.33579 13.5 2 13.1642 2 12.75C2 12.3358 2.33579 12 2.75 12H6C6.13261 12 6.25979 11.9473 6.35355 11.8536L7.79298 10.4141C8.49367 10.1857 9 9.52696 9 8.75V8H10C10.2761 8 10.5 7.77614 10.5 7.5C10.5 7.22386 10.2761 7 10 7H8.5C8.22386 7 8 7.22386 8 7.5V8.75C8 9.16421 7.66421 9.5 7.25 9.5C6.83579 9.5 6.5 9.16421 6.5 8.75V7C6.5 6.17157 7.17157 5.5 8 5.5H11.208C11.5938 6.38295 12.4748 7 13.5 7C13.5938 7 13.6865 6.99483 13.7776 6.98476Z" fill="#212121"/>
</svg>

<svg xmlns="http://www.w3.org/2000/svg" width="20" height="20"><path d="M13.5 6a1.5 1.5 0 1 1 0-3 1.5 1.5 0 0 1 0 3Zm1.326.62A2.5 2.5 0 1 0 11 4.5H8A2.5 2.5 0 0 0 5.5 7v1.75c0 .688.397 1.283.974 1.569L5.793 11H2.75a1.75 1.75 0 1 0 0 3.5h2.936c.637 0 1.256-.207 1.765-.588l1.002-.752L10 14.707v1.543a1.75 1.75 0 1 0 3.5 0V13a.5.5 0 0 0-.146-.354L11.707 11l.793-.793.097.097c.446.446 1.05.696 1.68.696h2.973a1.75 1.75 0 1 0 0-3.5h-1.543l-.88-.88Zm-1.048.365 1.368 1.369a.5.5 0 0 0 .354.146h1.75a.75.75 0 0 1 0 1.5h-2.973c-.365 0-.715-.145-.973-.403l-.45-.45a.5.5 0 0 0-.708 0l-1.5 1.5a.5.5 0 0 0 0 .707l1.854 1.853v3.043a.75.75 0 0 1-1.5 0V14.5a.5.5 0 0 0-.146-.354l-2-2A.5.5 0 0 0 8.2 12.1l-1.349 1.012a1.942 1.942 0 0 1-1.165.388H2.75a.75.75 0 0 1 0-1.5H6a.5.5 0 0 0 .354-.146l1.439-1.44A1.75 1.75 0 0 0 9 8.75V8h1a.5.5 0 0 0 0-1H8.5a.5.5 0 0 0-.5.5v1.25a.75.75 0 0 1-1.5 0V7A1.5 1.5 0 0 1 8 5.5h3.208a2.5 2.5 0 0 0 2.57 1.485Z"/></svg>
